images/castle.svg

<svg xmlns="http://www.w3.org/2000/svg" viewBox="0 0 14 14">
    <path d="M1 1L0 2.5V3h5v-.5L4 1zm9 0L9 2.5V3h5v-.5L13 1zM0 4v9h5c0-1 0-3 2-3s2 2 2 3h5V4H9v2H5V4zm2 2h1v1l-.5 1L2 7zm9 0h1v1l-.5 1-.5-1z" opacity=".5" fill="none" stroke="#fffff4" stroke-width="3" stroke-linecap="round" stroke-linejoin="round"/>
    <path d="M1 1L0 2.5V3h5v-.5L4 1H1zm9 0L9 2.5V3h5v-.5L13 1h-3zM0 4v9h5c0-1 0-3 2-3s2 2 2 3h5V4H9v2H5V4H0zm2 2h1v1l-.5 1L2 7V6zm9 0h1v1l-.5 1-.5-1V6z"/>
</svg>

<?xml version="1.0" encoding="UTF-8" standalone="no"?>
<svg xmlns:dc="http://purl.org/dc/elements/1.1/" xmlns:cc="http://creativecommons.org/ns#" xmlns:rdf="http://www.w3.org/1999/02/22-rdf-syntax-ns#" xmlns:svg="http://www.w3.org/2000/svg" xmlns="http://www.w3.org/2000/svg" xmlns:sodipodi="http://sodipodi.sourceforge.net/DTD/sodipodi-0.dtd" xmlns:inkscape="http://www.inkscape.org/namespaces/inkscape" id="svg2" viewBox="0 0 14 14" height="100%" width="100%" version="1.1" sodipodi:docname="castle.svg" inkscape:version="0.92.4 (5da689c313, 2019-01-14)">
  <sodipodi:namedview pagecolor="#ffffff" bordercolor="#666666" borderopacity="1" objecttolerance="10" gridtolerance="10" guidetolerance="10" inkscape:pageopacity="0" inkscape:pageshadow="2" inkscape:window-width="1881" inkscape:window-height="1051" id="namedview846" showgrid="false" inkscape:pagecheckerboard="true" inkscape:zoom="61.285714" inkscape:cx="7" inkscape:cy="7" inkscape:window-x="0" inkscape:window-y="0" inkscape:window-maximized="1" inkscape:current-layer="svg2" />
  <metadata id="metadata8">
    <rdf:RDF>
      <cc:Work rdf:about="">
        <dc:format>image/svg+xml</dc:format>
        <dc:type rdf:resource="http://purl.org/dc/dcmitype/StillImage" />
        <dc:title></dc:title>
      </cc:Work>
    </rdf:RDF>
  </metadata>
  <defs id="defs6" />
  <path style="opacity:0.5;fill:none;fill-opacity:1;stroke:#fffff4;stroke-width:3;stroke-linecap:round;stroke-linejoin:round;stroke-miterlimit:4;stroke-dasharray:none;stroke-opacity:1" d="M 1,1 L 0,2.5 V 3 H 5 V 2.5 L 4,1 Z M 10,1 L 9,2.5 V 3 H 14 V 2.5 L 13,1 Z M 0,4 V 13 H 5 C 5,12 5,10 7,10 C 9,10 9,12 9,13 H 14 V 4 H 9 V 6 H 7 H 5 V 4 Z M 2,6 H 3 V 7 L 2.5,8 L 2,7 Z M 11,6 H 12 V 7 L 11.5,8 L 11,7 Z" id="outline" inkscape:connector-curvature="0" />
  <path id="path824" d="M 1 1 L 0 2.5 L 0 3 L 5 3 L 5 2.5 L 4 1 L 1 1 z M 10 1 L 9 2.5 L 9 3 L 14 3 L 14 2.5 L 13 1 L 10 1 z M 0 4 L 0 13 L 5 13 C 5 12 5 10 7 10 C 9 10 9 12 9 13 L 14 13 L 14 4 L 9 4 L 9 6 L 7 6 L 5 6 L 5 4 L 0 4 z M 2 6 L 3 6 L 3 7 L 2.5 8 L 2 7 L 2 6 z M 11 6 L 12 6 L 12 7 L 11.5 8 L 11 7 L 11 6 z " style="fill:#000000;fill-opacity:1;stroke:none" />
</svg>
